vendor/shopware/storefront/Resources/app/storefront/dist/assets/icon/solid/star-half.svg

<svg xmlns="http://www.w3.org/2000/svg" xmlns:xlink="http://www.w3.org/1999/xlink" width="24" height="24" viewBox="0 0 24 24">
    <defs>
        <path id="icons-default-basic-shape-star-half-a" d="M7.45244675,6.89518754 L1.85772473,8.1067047 C1.51965952,8.17991152 1.20635992,8.33954564 0.948424617,8.57001625 C0.124756335,9.30598115 0.0536586991,10.5703137 0.789623603,11.3939819 L4.57593077,15.6314953 L4.00349179,21.2852512 C3.96864772,21.6293924 4.02365389,21.9766877 4.16313807,22.2932181 C4.60855479,23.3039988 5.78903608,23.7623169 6.79981683,23.3169002 L11.4035224,21.2882037 C11.7657754,21.1285711 11.9997608,20.7702713 12.0002724,20.3744058 L12.0244064,1.69970114 C12.0247839,1.44243588 11.8164987,1.23361161 11.5592334,1.23327913 C11.4049818,1.23307979 11.2606342,1.30925308 11.1737448,1.4367044 C11.1737448,1.4367044 11.1737448,1.4367044 11.1737448,1.4367044 L7.45244675,6.89518754 Z"/>
    </defs>
    <use fill="#758CA3" fill-rule="evenodd" xlink:href="#icons-default-basic-shape-star-half-a"/>
</svg>

<svg xmlns="http://www.w3.org/2000/svg" xmlns:xlink="http://www.w3.org/1999/xlink" width="24" height="24" viewBox="0 0 24 24"><defs><path id="icons-default-basic-shape-star-half-a" d="M7.4524 6.8952 1.8577 8.1067a2 2 0 0 0-.9093.4633c-.8236.736-.8947 2.0003-.1588 2.824l3.7863 4.2375-.5724 5.6538a2 2 0 0 0 .1596 1.008c.4455 1.0107 1.626 1.469 2.6367 1.0236l4.6037-2.0287a1 1 0 0 0 .5968-.9138l.0241-18.6747a.4658.4658 0 0 0-.8507-.263L7.4524 6.8952z"/></defs><use fill="#758CA3" fill-rule="evenodd" xlink:href="#icons-default-basic-shape-star-half-a"/></svg>
